dist/assets/image/Moon.svg

<svg width="40" height="40" viewBox="0 0 40 40" fill="none" xmlns="http://www.w3.org/2000/svg">
<path d="M20.4999 36.6667H20.3333V36.6667C15.7157 36.6315 11.3066 34.7393 8.09993 31.4167H8.09993C2.00316 24.8968 1.81611 14.8251 7.6666 8.08336L7.6666 8.08335C9.4864 6.04392 11.7741 4.47682 14.3333 3.51669V3.51669C14.9431 3.28202 15.6338 3.42538 16.0999 3.88336V3.88336C16.5306 4.32253 16.6844 4.96322 16.4999 5.55002V5.55002C14.6352 10.6571 15.8958 16.382 19.7333 20.2334V20.2334C23.6054 24.0579 29.3312 25.3159 34.4499 23.4667V23.4667C35.3182 23.1611 36.2698 23.6172 36.5754 24.4854C36.7045 24.852 36.7013 25.2522 36.5666 25.6167V25.6167C35.7152 27.8896 34.3851 29.9528 32.6666 31.6667H32.6666C29.4379 34.8858 25.0592 36.6852 20.4999 36.6667L20.4999 36.6667Z" fill="#EDF2F7"/>
</svg>

<svg xmlns="http://www.w3.org/2000/svg" width="28" viewBox="0 0 40 40" fill="none"><path d="M20.5 36.667h-.167c-4.618-.035-9.027-1.927-12.233-5.25-6.097-6.52-6.284-16.592-.433-23.333 1.82-2.04 4.108-3.607 6.667-4.567.6-.235 1.3-.09 1.767.367.43.44.584 1.08.4 1.667a14 14 0 0 0 3.233 14.683c3.872 3.825 9.598 5.083 14.717 3.233.868-.306 1.82.15 2.125 1.02.13.367.126.767-.01 1.13a16.93 16.93 0 0 1-3.9 6.05c-3.23 3.22-7.607 5.02-12.167 5z" fill="#161819"/></svg>
